resources/icons/20px/notifications-snooze.svg

<svg xmlns="http://www.w3.org/2000/svg" viewBox="0 0 20 20">
  <path d="M12 18C12 19.1 11.1 20 10 20C8.9 20 8 19.1 8 18H12ZM10 0C10.4757 0 10.914 0.168307 11.2583 0.448311C10.5082 0.877758 10.0894 1.56158 10 2.5C9.86667 3.9 10.4 4.86667 11.6 5.4C10.5333 6.6 10 7.46667 10 8V9.2C10 10.7464 11.2536 12 12.8 12H16V14C16 14.5107 16.388 14.9352 16.8838 14.9932L17 15C17.55 15 18 15.45 18 16C18 16.55 17.55 17 17 17H3C2.45 17 2 16.55 2 16C2 15.45 2.45 15 3 15C3.55 15 4 14.55 4 14V8C4 5.39 5.67 3.19 8 2.37V2C8 0.9 8.9 0 10 0Z" />
  <path d="M18 9.25V8.85526C18 8.44105 17.6642 8.10526 17.25 8.10526H14.4375L17.8335 3.90031C17.9412 3.76689 18 3.60058 18 3.42908V2.75C18 2.33579 17.6642 2 17.25 2H12.75C12.3358 2 12 2.33579 12 2.75V2.93421C12 3.34842 12.3358 3.68421 12.75 3.68421H15.5625L12.2213 7.83058C12.0781 8.00833 12 8.22974 12 8.45803V9.25C12 9.66421 12.3358 10 12.75 10H17.25C17.6642 10 18 9.66421 18 9.25Z" />
</svg>

<svg xmlns="http://www.w3.org/2000/svg" viewBox="0 0 20 20">
  <path d="M12 18c0 1.1-.9 2-2 2s-2-.9-2-2zM10 0c.476 0 .914.168 1.258.448Q10.133 1.093 10 2.5q-.2 2.1 1.6 2.9Q10 7.2 10 8v1.2a2.8 2.8 0 0 0 2.8 2.8H16v2c0 .51.388.935.884.993L17 15c.55 0 1 .45 1 1s-.45 1-1 1H3c-.55 0-1-.45-1-1s.45-1 1-1 1-.45 1-1V8c0-2.61 1.67-4.81 4-5.63V2c0-1.1.9-2 2-2"/>
  <path d="M18 9.25v-.395a.75.75 0 0 0-.75-.75h-2.812L17.834 3.9A.75.75 0 0 0 18 3.43v-.68a.75.75 0 0 0-.75-.75h-4.5a.75.75 0 0 0-.75.75v.184c0 .414.336.75.75.75h2.813L12.22 7.831a1 1 0 0 0-.221.627v.792c0 .414.336.75.75.75h4.5a.75.75 0 0 0 .75-.75"/>
</svg>
